X: 20261
T: l'ETE.     Quadrille.
%R: march, reel
B: "Edinburgh Repository of Music" v.2 p.26 #1
F: http://digital.nls.uk/special-collections-of-printed-music/pageturner.cfm?id=87776133
Z: 2015 John Chambers <jc:trillian.mit.edu>
M: 2/4
L: 1/16
K: G
d2g2 |\
f2d2 e2e2 | d4 c2e2 | B2d2 A2c2 | B2G2 d2g2 |\
f2d2 e2e2 | d4 (cd).e.c | B2d2 c2A2 | G4 H|]
|: B2e2 |\
e^dcB efga | f2B2 b2(bg) | a2(af) g2(ge) | B4 b2b2 |\
Tg4 a2a2 | Tf4 (ag).f.g | e2g2 f2^d2 | e4 :|
d2g2 |\
f2d2 e2e2 | d4 c2e2 | B2d2 A2c2 | B2G2 d2g2 |\
f2d2 e2e2 | d4 (cd).e.c | B2d2 c2A2 | "_D.C."G4 |]
